X: 24297
T: Lost Keys, The
R: barndance
M: 4/4
K: Dminor
|:efec AGAd|DcDA BGAD|EFcD EFEC|DFDA BGAD|
efec AGAd|DcDA BGAD|EFcD EFEC|DFDA BGA2:|
|:AGAe -eAed-|dB2A/B/ cdBA|GFGA -ADAG-|GCE/F/G BAGF|
AGAe -eAed-|dB2A/B/ cdBA|GFGA -ADAG-|GCE/F/G BAGF:|

